X:1
T:Les voyageurs de la Gatineau
C:Mazurka du Québec. Fichier ABC par Bernard Loffet
L:1/8
Q:386
M:9/8
K:G
 z6 [D2G,2]G | [B3G,,3] [G3G,3] [F2D,2]A | [c3D,,3] [A3D,3] [A2D,2]G | [F3D,,3] [D3G,3] [E2D,2]F | \
 [G3G,,3] G,3 [D2G,2]G | [B3G,,3] [G3G,3] [F2D,2]A | [c3D,,3] [A3D,3] [A2D,2]G | [F2D,,2]D [D2G,2]D [E2D,2]F | \
 [G3G,,3] G,3 [B2G,2]c | [d3G,,3] [c3D,3] [B2G,2]d | [c3D,,3] [c3D,3] [A2D,2]B | [c3D,,3] [B3G,3] [A2D,2]G | \
 [B3G,,3] G,3 [B2G,2]B | [A3D,,3] [d3G,3] [d2G,2]d | [B3G,,3] [G3G,3] [A2D,2]G | [F3D,,3] [D3G,3] [E2D,2]F | \
 [G3G,,3] G,6 | \
W:Created with TablEdit http://www.tabledit.com/ by Bernard Loffet
